X:1     %Music
T:Heron from Brecon
B:Singing Together, Spring 1973, BBC Publications
F:http://www.folkinfo.org/songs
M:6/8     %Meter
L:1/8     %
K:F
FFF c2 c |A3 F3 |G2 G c2 c |A3 F3 |
w:Down from the hills of Bre-con Flew a hun-gry He-ron, 
c2 A Bcd |d2 A c3 |A2 F A3 |D3 C3 |
w:In a bar-rel he bumped his head, And he said, "Boom, boom, 
D3 C3 |GGG c2 c |A3 F3 |]
w:boom, boom! Ap-ples I've hit my neck on!" 